svgs/solid/umbrella.svg

<svg xmlns="http://www.w3.org/2000/svg" viewBox="0 0 576 512"><!-- Font Awesome Pro 6.0.0-alpha2 by @fontawesome - https://fontawesome.com License - https://fontawesome.com/license (Commercial License) --><path d="M255.996 301.742V432.078C255.996 440.893 248.809 448.082 239.996 448.082C232.182 448.082 226.807 442.768 224.9 437.393C218.994 420.67 200.805 411.98 184.086 417.889C167.396 423.764 158.678 442.08 164.584 458.678C175.805 490.59 206.182 512 239.996 512C284.092 512 320 476.086 320 431.984V301.648C310.906 293.74 300.186 288.053 287.998 288.053C275.686 288.146 265.59 292.865 255.996 301.742ZM575.701 280.863C547.107 144.525 437.318 62.605 320 49.914V32.006C320 14.314 305.688 0 287.998 0S255.996 14.314 255.996 32.006V49.914C138.303 62.605 29.482 144.525 0.295 280.863C-1.926 290.959 8.795 302.148 18.982 292.24C70.986 237.23 126.676 239.855 177.586 329.248C182.898 338.75 192.492 337.873 197.305 329.248C217.494 293.865 242.184 256.047 287.998 256.047C346.502 256.047 376.191 324.871 378.691 329.248C383.504 337.873 393.098 338.75 398.41 329.248C449.414 239.73 505.51 237.855 557.014 292.24C567.326 302.242 577.922 290.959 575.701 280.863Z"/></svg>

<svg xmlns="http://www.w3.org/2000/svg" viewBox="0 0 576 512"><!-- Font Awesome Pro 5.15.1 by @fontawesome - https://fontawesome.com License - https://fontawesome.com/license (Commercial License) --><path d="M575.7 280.8C547.1 144.5 437.3 62.6 320 49.9V32c0-17.7-14.3-32-32-32s-32 14.3-32 32v17.9C138.3 62.6 29.5 144.5.3 280.8c-2.2 10.1 8.5 21.3 18.7 11.4 52-55 107.7-52.4 158.6 37 5.3 9.5 14.9 8.6 19.7 0 20.2-35.4 44.9-73.2 90.7-73.2 58.5 0 88.2 68.8 90.7 73.2 4.8 8.6 14.4 9.5 19.7 0 51-89.5 107.1-91.4 158.6-37 10.3 10 20.9-1.3 18.7-11.4zM256 301.7V432c0 8.8-7.2 16-16 16-7.8 0-13.2-5.3-15.1-10.7-5.9-16.7-24.1-25.4-40.8-19.5-16.7 5.9-25.4 24.2-19.5 40.8 11.2 31.9 41.6 53.3 75.4 53.3 44.1 0 80-35.9 80-80V301.6c-9.1-7.9-19.8-13.6-32-13.6-12.3.1-22.4 4.8-32 13.7z"/></svg>
